assets/Woman astronaut/Light/Flat/woman_astronaut_flat_light.svg

<svg width="32" height="32" viewBox="0 0 32 32" fill="none" xmlns="http://www.w3.org/2000/svg">
<path d="M21.61 18.47H10.4C7.17 20.39 6 23.97 6 28L5 29.99H11.5257L15.9866 28.2042L20.4726 29.99H27.02L26 28C26.1438 23.9726 24.85 20.39 21.61 18.47Z" fill="#D3D3D3"/>
<path d="M9.47003 19.87C8.23003 18.95 8.88003 16.99 10.42 16.99H21.6C23.13 16.99 23.78 18.96 22.55 19.87C20.72 21.23 18.46 22.03 16.01 22.03C13.56 22.03 11.3 21.22 9.47003 19.87Z" fill="#E6E6E6"/>
<path d="M23.01 19.45V29.99H27.01V27.62C26.92 24.33 25.38 21.41 23.01 19.45Z" fill="#E6E6E6"/>
<path d="M5.97278 27.8751L5.01599 28.9902L5.02001 29.99H7.01001L9.03001 29.98L8.98001 19.47C6.84337 21.2398 5.39627 23.8001 5.07056 26.7036L5.97278 27.8751Z" fill="#E6E6E6"/>
<path d="M18 25C18.5523 25 19 24.5523 19 24C19 23.4477 18.5523 23 18 23C17.4477 23 17 23.4477 17 24C17 24.5523 17.4477 25 18 25Z" fill="#F92F60"/>
<path d="M15 24C15 24.5523 14.5523 25 14 25C13.4477 25 13 24.5523 13 24C13 23.4477 13.4477 23 14 23C14.5523 23 15 23.4477 15 24Z" fill="#5092FF"/>
<path d="M7.37001 27.04V28.66C7.37001 28.85 7.22001 29 7.04001 29H5.02001L5.01001 27.5C5.02001 27.23 5.04001 26.96 5.07001 26.7H7.03001C7.22001 26.7 7.37001 26.85 7.37001 27.04Z" fill="#5092FF"/>
<path d="M6.86913 9H7.91107C7.75349 9.64059 7.66992 10.3104 7.66992 11C7.66992 12.0579 7.86662 13.0694 8.22547 14H6.86913C6.38961 14 6 13.61 6 13.13V9.87C6 9.39 6.38961 9 6.86913 9Z" fill="#9B9B9B"/>
<path d="M24.3301 11C24.3301 12.0579 24.1334 13.0694 23.7745 14H25.1309C25.6104 14 26 13.61 26 13.13V9.87C26 9.39 25.6104 9 25.1309 9H24.0884C24.2463 9.64059 24.3301 10.3104 24.3301 11Z" fill="#9B9B9B"/>
<path d="M12.3191 26H19.6809C20.1404 26 20.5 26.3582 20.5 26.8159V30H11.5V26.8159C11.5 26.3682 11.8696 26 12.3191 26Z" fill="#9B9B9B"/>
<path d="M15.75 19.1699C20.3063 19.1699 24 15.4763 24 10.9199C24 6.36357 20.3063 2.66992 15.75 2.66992C11.1937 2.66992 7.5 6.36357 7.5 10.9199C7.5 15.4763 11.1937 19.1699 15.75 19.1699Z" fill="#212121"/>
<path d="M19.911 7.34H16.7386C15.4791 7.34 14.3049 6.73494 13.5947 5.70274C13.4716 5.53229 13.2159 5.5607 13.1401 5.75956L13.0644 5.94896C12.8276 6.4982 12.4015 6.92433 11.8712 7.16108C11.8428 7.17055 11.8049 7.18949 11.767 7.19896C11.5397 7.32206 10.9905 7.68191 10.9716 8.62888L11.1041 11.7918C11.2178 14.5948 13.3769 16.4698 16 16.4698C18.6231 16.4698 20.7822 14.5948 20.8958 11.7918L21.0189 8.7804C21.0189 7.45464 20.0909 7.34 19.911 7.34Z" fill="#FFD7C2"/>
<path d="M22.4205 6.89583V6.9053L20.3182 7.41667H20.3088C20.2993 7.4072 20.2803 7.4072 20.2709 7.39773H20.2614C20.2519 7.39773 20.233 7.38826 20.2235 7.38826H20.2141C20.1951 7.38826 20.1857 7.37879 20.1762 7.37879H20.1667C20.1572 7.37879 20.1478 7.36932 20.1383 7.36932H20.1288C20.1194 7.36932 20.1099 7.35985 20.1004 7.35985H20.091C20.0815 7.35038 20.072 7.35038 20.0625 7.35038H16.7292C15.4697 7.35038 14.2955 6.73485 13.5853 5.69318C13.4716 5.5322 13.2065 5.56061 13.1307 5.75L13.055 5.93939C12.8277 6.49811 12.3921 6.92424 11.8713 7.16098C11.8428 7.17045 11.805 7.18939 11.7671 7.19886C11.7576 7.20833 11.7387 7.2178 11.7292 7.23674H11.7197C11.7008 7.24621 11.6913 7.25568 11.6724 7.26515H11.6629C11.6535 7.27462 11.6345 7.28409 11.6156 7.29356C11.6156 7.30303 11.6061 7.30303 11.6061 7.30303C11.5872 7.3125 11.5682 7.32197 11.5493 7.34091C11.5493 7.35038 11.5398 7.35038 11.5398 7.35038C11.5209 7.35985 11.5019 7.37879 11.483 7.39773L9.57959 6.91477V6.9053C9.57959 5.08712 11.0569 3.60985 12.875 3.60985C13.055 3.60985 13.2254 3.52462 13.3296 3.37311C13.9262 2.53977 14.9016 2 16 2C17.108 2 18.0834 2.53977 18.6705 3.37311C18.7747 3.51515 18.9451 3.60038 19.125 3.60038C20.9432 3.60038 22.4205 5.07765 22.4205 6.89583Z" fill="#212121"/>
<path d="M13.3959 9.19678C13.9546 9.19678 14.4092 9.58504 14.7027 10.0206C14.4724 10.0901 14.2484 10.1542 14.0268 10.2177C13.5834 10.3447 13.1498 10.4688 12.6952 10.6267L12.2217 10.2006C12.0323 10.0206 12.0418 9.69867 12.2596 9.54716C12.5721 9.31988 12.9982 9.19678 13.3959 9.19678Z" fill="black"/>
<path d="M18.6136 9.19678C18.0549 9.19678 17.5909 9.58504 17.3068 10.0206C17.5537 10.0961 17.7944 10.1653 18.0338 10.2342C18.4555 10.3555 18.8734 10.4757 19.3143 10.6267L19.7878 10.2006C19.9772 10.0206 19.9677 9.69867 19.7499 9.54716C19.4374 9.31988 19.0113 9.19678 18.6136 9.19678Z" fill="black"/>
<path d="M13.5662 9.3011C12.9128 9.3011 12.3636 9.74618 12.2121 10.3522C12.1742 10.5227 12.3068 10.6931 12.4867 10.6931H14.7121C14.8541 10.6931 14.9677 10.5606 14.9393 10.428C14.8068 9.78406 14.248 9.3011 13.5662 9.3011Z" fill="white"/>
<path d="M18.4338 9.30103C19.0872 9.30103 19.6364 9.7461 19.788 10.3522C19.8258 10.5226 19.6933 10.6931 19.5228 10.6931H17.2974C17.1554 10.6931 17.0417 10.5605 17.0701 10.4279C17.1933 9.78398 17.7614 9.30103 18.4338 9.30103Z" fill="white"/>
<path d="M12.8845 10.4566C12.8845 9.96413 13.2822 9.56641 13.7747 9.56641C14.2671 9.56641 14.6648 9.96413 14.6648 10.4566C14.6648 10.5323 14.6554 10.6175 14.6269 10.6933H12.9129C12.894 10.6175 12.8845 10.5418 12.8845 10.4566Z" fill="#7D4533"/>
<path d="M19.1156 10.4566C19.1156 9.96413 18.7179 9.56641 18.2255 9.56641C17.733 9.56641 17.3353 9.96413 17.3448 10.4566C17.3448 10.5418 17.3542 10.6175 17.3732 10.6933H19.0872C19.1061 10.6175 19.1156 10.5418 19.1156 10.4566Z" fill="#7D4533"/>
<path d="M13.7651 9.94482C14.0492 9.94482 14.2765 10.1721 14.2765 10.4562C14.2765 10.5414 14.2576 10.6172 14.2102 10.6929H13.3106C13.2727 10.6172 13.2538 10.5414 13.2538 10.4562C13.2538 10.1721 13.4811 9.94482 13.7651 9.94482Z" fill="black"/>
<path d="M18.2349 9.94482C17.9508 9.94482 17.7235 10.1721 17.7235 10.4562C17.7235 10.5414 17.7425 10.6172 17.7898 10.6929H18.6894C18.7273 10.6172 18.7462 10.5414 18.7462 10.4562C18.7462 10.1721 18.519 9.94482 18.2349 9.94482Z" fill="black"/>
<path d="M13.6326 10.1058C13.6326 10.1947 13.5606 10.2668 13.4717 10.2668C13.3827 10.2668 13.3107 10.1947 13.3107 10.1058C13.3107 10.0169 13.3827 9.94482 13.4717 9.94482C13.5606 9.94482 13.6326 10.0169 13.6326 10.1058Z" fill="#E5AF93"/>
<path d="M18.0928 10.1058C18.0928 10.1947 18.0208 10.2668 17.9319 10.2668C17.8429 10.2668 17.7709 10.1947 17.7709 10.1058C17.7709 10.0169 17.8429 9.94482 17.9319 9.94482C18.0208 9.94482 18.0928 10.0169 18.0928 10.1058Z" fill="#E5AF93"/>
<path d="M15.6541 10.2897L15.1583 12.0282C15.0554 12.384 15.2986 12.75 15.6447 12.75H16.3743C16.7204 12.75 16.9636 12.384 16.8607 12.0282L16.365 10.2897C16.2621 9.90342 15.7663 9.90342 15.6541 10.2897Z" fill="#E5AF93"/>
<path d="M16.0005 13.7057C15.45 13.7057 14.9301 13.5669 14.4918 13.3212C14.3389 13.2358 14.186 13.4174 14.2777 13.5669C14.6447 14.1542 15.2767 14.5493 16.0005 14.5493C16.7243 14.5493 17.3563 14.1542 17.7233 13.5669C17.8151 13.4174 17.652 13.2465 17.5093 13.3212C17.0607 13.5669 16.551 13.7057 16.0005 13.7057Z" fill="#990838"/>
<path d="M19.3996 8.6478C19.4375 8.67621 19.4848 8.68568 19.5322 8.68568C19.6269 8.68568 19.7121 8.63833 19.7594 8.54363C19.8352 8.41106 19.7973 8.25007 19.6647 8.17431C19.6363 8.15537 18.7651 7.67242 17.7708 7.85234C17.6193 7.88075 17.5246 8.0228 17.553 8.16484C17.5814 8.31636 17.7235 8.41106 17.8655 8.38265C18.6018 8.2527 19.2668 8.58239 19.3821 8.63952C19.3928 8.64484 19.3996 8.6478 19.3996 8.6478Z" fill="#212121"/>
<path d="M12.2309 8.55293C12.2878 8.63815 12.373 8.6855 12.4677 8.6855C12.515 8.6855 12.5624 8.67603 12.6003 8.65709C12.6097 8.64762 13.3294 8.2499 14.1344 8.39194C14.2859 8.42035 14.4184 8.31618 14.4374 8.17414C14.4658 8.03209 14.3616 7.89005 14.2196 7.86164C13.2663 7.68007 12.4349 8.12516 12.3345 8.17892C12.3302 8.18124 12.3256 8.18361 12.3256 8.18361C12.2025 8.25937 12.1552 8.42035 12.2309 8.55293Z" fill="#212121"/>
<path d="M16.01 6.80008C18.76 6.80008 21.29 7.72008 23.31 9.26008C23.31 5.88598 21.5946 2.70581 16.01 2.70581C11.4137 2.70581 8.3885 5.96355 8.71001 9.26008C10.73 7.72008 13.26 6.80008 16.01 6.80008Z" fill="#636363"/>
<path d="M18.03 15.6599H21C21.28 15.6599 21.5 15.4399 21.5 15.1599C21.5 14.8799 21.28 14.6599 21 14.6599H18.03C17.75 14.6599 17.53 14.8799 17.53 15.1599C17.53 15.4399 17.76 15.6599 18.03 15.6599Z" fill="#636363"/>
<path d="M21.07 14.2401C20.2 15.6001 18.79 16.5901 17.15 16.9101C16.71 16.9901 16.39 17.3701 16.39 17.8201V18.9701H18.52C21.04 18.1701 23.05 16.2101 23.9 13.7101H22.07C21.67 13.7001 21.29 13.9001 21.07 14.2401Z" fill="#9B9B9B"/>
<path d="M16 2C11.0255 2 7 6.02553 7 11C7 15.9745 11.0255 20 16 20C20.9745 20 25 15.9745 25 11C25 6.02553 20.9645 2 16 2ZM16 18.5017C11.8646 18.5017 8.49834 15.1354 8.49834 11C8.49834 6.8646 11.8646 3.49834 16 3.49834C20.1354 3.49834 23.5017 6.8646 23.5017 11C23.5017 15.1354 20.1354 18.5017 16 18.5017Z" fill="#D3D3D3"/>
</svg>

<svg xmlns="http://www.w3.org/2000/svg" width="32" height="32" fill="none"><path fill="#D3D3D3" d="M21.61 18.47H10.4C7.17 20.39 6 23.97 6 28l-1 1.99h6.526l4.46-1.786 4.487 1.786h6.547L26 28c.144-4.027-1.15-7.61-4.39-9.53Z"/><path fill="#E6E6E6" d="M9.47 19.87c-1.24-.92-.59-2.88.95-2.88H21.6c1.53 0 2.18 1.97.95 2.88a10.918 10.918 0 0 1-6.54 2.16c-2.45 0-4.71-.81-6.54-2.16Z"/><path fill="#E6E6E6" d="M23.01 19.45v10.54h4v-2.37c-.09-3.29-1.63-6.21-4-8.17ZM5.973 27.875l-.957 1.115.004 1h1.99l2.02-.01-.05-10.51a10.968 10.968 0 0 0-3.91 7.234l.903 1.171Z"/><path fill="#F92F60" d="M18 25a1 1 0 1 0 0-2 1 1 0 0 0 0 2Z"/><path fill="#5092FF" d="M15 24a1 1 0 1 1-2 0 1 1 0 0 1 2 0ZM7.37 27.04v1.62c0 .19-.15.34-.33.34H5.02l-.01-1.5c.01-.27.03-.54.06-.8h1.96c.19 0 .34.15.34.34Z"/><path fill="#9B9B9B" d="M6.87 9H7.91a8.363 8.363 0 0 0-.241 2c0 1.058.197 2.07.555 3H6.87A.87.87 0 0 1 6 13.13V9.87c0-.48.39-.87.87-.87ZM24.33 11a8.32 8.32 0 0 1-.555 3h1.356c.48 0 .869-.39.869-.87V9.87a.87.87 0 0 0-.87-.87h-1.042c.158.64.242 1.31.242 2ZM12.32 26h7.36c.46 0 .82.358.82.816V30h-9v-3.184c0-.448.37-.816.82-.816Z"/><path fill="#212121" d="M15.75 19.17a8.25 8.25 0 1 0 0-16.5 8.25 8.25 0 0 0 0 16.5Z"/><path fill="#FFD7C2" d="M19.911 7.34h-3.172a3.801 3.801 0 0 1-3.144-1.637.258.258 0 0 0-.455.057l-.076.189c-.236.55-.662.975-1.193 1.212-.028.01-.066.028-.104.038-.227.123-.776.483-.795 1.43l.132 3.163c.114 2.803 2.273 4.678 4.896 4.678 2.623 0 4.782-1.875 4.896-4.678l.123-3.012c0-1.325-.928-1.44-1.108-1.44Z"/><path fill="#212121" d="M22.42 6.896v.01l-2.102.51h-.01c-.009-.009-.028-.009-.037-.018h-.01c-.01 0-.028-.01-.037-.01h-.01c-.019 0-.028-.01-.038-.01h-.01c-.009 0-.018-.009-.028-.009h-.01c-.009 0-.018-.01-.028-.01h-.009c-.01-.009-.019-.009-.029-.009H16.73a3.796 3.796 0 0 1-3.144-1.657c-.113-.16-.379-.132-.454.057l-.076.19a2.3 2.3 0 0 1-1.184 1.221c-.028.01-.066.028-.104.038-.01.01-.028.019-.038.038h-.01c-.018.01-.028.019-.047.028h-.01c-.009.01-.028.02-.046.029 0 .009-.01.009-.01.009-.019.01-.038.019-.057.038 0 .01-.01.01-.01.01a.251.251 0 0 0-.056.047L9.58 6.915v-.01a3.298 3.298 0 0 1 3.295-3.295c.18 0 .35-.085.455-.237A3.278 3.278 0 0 1 16 2c1.108 0 2.083.54 2.67 1.373a.565.565 0 0 0 .455.227 3.298 3.298 0 0 1 3.296 3.296Z"/><path fill="#000" d="M13.396 9.197c.559 0 1.013.388 1.307.824-.23.07-.455.133-.676.197-.444.127-.877.25-1.332.409l-.473-.426c-.19-.18-.18-.502.038-.654a1.99 1.99 0 0 1 1.136-.35ZM18.614 9.197c-.56 0-1.023.388-1.307.824.247.075.487.144.727.213.422.121.84.242 1.28.393l.474-.426c.19-.18.18-.502-.038-.654a1.99 1.99 0 0 0-1.136-.35Z"/><path fill="#fff" d="M13.566 9.301c-.653 0-1.202.445-1.354 1.051-.038.17.095.341.275.341h2.225c.142 0 .256-.132.227-.265a1.401 1.401 0 0 0-1.373-1.127ZM18.434 9.301c.653 0 1.202.445 1.354 1.051.038.17-.095.341-.265.341h-2.226c-.142 0-.255-.133-.227-.265A1.391 1.391 0 0 1 18.434 9.3Z"/><path fill="#7D4533" d="M12.884 10.457a.89.89 0 1 1 1.78 0c0 .075-.009.16-.037.236h-1.714a.956.956 0 0 1-.029-.236ZM19.116 10.457a.89.89 0 0 0-.89-.89.875.875 0 0 0-.881.89c0 .085.01.16.028.236h1.714a.956.956 0 0 0 .029-.236Z"/><path fill="#000" d="M13.765 9.945a.51.51 0 0 1 .511.511.427.427 0 0 1-.066.237h-.9a.513.513 0 0 1 .455-.748ZM18.235 9.945a.51.51 0 0 0-.511.511c0 .085.018.161.066.237h.9a.513.513 0 0 0-.455-.748Z"/><path fill="#E5AF93" d="M13.633 10.106a.16.16 0 1 1-.322 0 .16.16 0 0 1 .322 0ZM18.093 10.106a.16.16 0 1 1-.322 0 .16.16 0 0 1 .322 0ZM15.654 10.29l-.496 1.738c-.103.356.14.722.487.722h.73c.345 0 .589-.366.486-.722l-.496-1.738c-.103-.387-.599-.387-.71 0Z"/><path fill="#990838" d="M16 13.706c-.55 0-1.07-.14-1.508-.385-.153-.085-.306.096-.214.246.367.587.999.982 1.722.982.724 0 1.356-.395 1.723-.982.092-.15-.071-.32-.214-.246a3.118 3.118 0 0 1-1.509.385Z"/><path fill="#212121" d="M19.4 8.648a.217.217 0 0 0 .132.038c.095 0 .18-.048.227-.142a.265.265 0 0 0-.094-.37c-.029-.019-.9-.502-1.894-.322a.267.267 0 0 0-.218.313c.028.151.17.246.313.218.736-.13 1.4.2 1.516.257l.018.008ZM12.23 8.553a.282.282 0 0 0 .238.132c.047 0 .094-.009.132-.028.01-.01.73-.407 1.534-.265a.256.256 0 0 0 .303-.218c.029-.142-.075-.284-.217-.312-.954-.182-1.785.263-1.886.317l-.008.005a.273.273 0 0 0-.095.369Z"/><path fill="#636363" d="M16.01 6.8a12 12 0 0 1 7.3 2.46c0-3.374-1.715-6.554-7.3-6.554-4.596 0-7.622 3.258-7.3 6.554a12 12 0 0 1 7.3-2.46ZM18.03 15.66H21c.28 0 .5-.22.5-.5s-.22-.5-.5-.5h-2.97c-.28 0-.5.22-.5.5s.23.5.5.5Z"/><path fill="#9B9B9B" d="M21.07 14.24a6.041 6.041 0 0 1-3.92 2.67c-.44.08-.76.46-.76.91v1.15h2.13c2.52-.8 4.53-2.76 5.38-5.26h-1.83c-.4-.01-.78.19-1 .53Z"/><path fill="#D3D3D3" d="M16 2c-4.975 0-9 4.026-9 9 0 4.975 4.025 9 9 9 4.974 0 9-4.025 9-9 0-4.974-4.035-9-9-9Zm0 16.502c-4.135 0-7.502-3.367-7.502-7.502S11.865 3.498 16 3.498 23.502 6.865 23.502 11 20.135 18.502 16 18.502Z"/></svg>
